X:29
%%scale .7
T:Monahan Twig/ Colliers
T:Monahan Twig
M:4/4
K:D
ed|cAAG Aced|cAAG E3[BG]|cAAG Aced|BAGB d2 ed|
cAAG Aced|cAAG E3B|cAAG Aced|BAGB d2ed||
B/c/d ef gfed|B/c/d ef e3d|cdef gfge|dBGB d2ed|
cded cded|cAAB cdef|gfge dfed|BAGB d2ed||
T:Colliers'
M:4/4
K:Dmix
||:AG|F/E/D E/F/G A3B|cAdB cABG|AddA d3e|fdeA d^cAG|
F2DF A3B|cAdB cABG|Add^c A3G|EFGE FD:||:
de|fded fde^c|Add^c Adde|fdde fde^c|A3B cBcd|
eaag efge|B/c/d ed ^cAGG|Add^c A3G|EFGE FD:||

